X:1
T:Bethany (Mason), 10.10.12.10
T:Lowell Mason, 1856
T:Bethany (Mason), 10.10.12.10
T:Public Domain
C:Lowell Mason, 1856
Z:Public Domain
%%score ( 1 2 ) ( 3 4 )
L:1/8
M:4/4
K:F
V:1 treble 
V:2 treble 
V:3 bass 
V:4 bass 
V:1
 [CA]4 [B,G]2 [A,F]2 | [DF]3 [B,D] [B,D]4 | C4 [CF]2 [CA]2 | [CG]8 | [CA]4 [B,G]2 [A,F]2 | %5
 [DF]3 [B,D] [B,D]4 | ([A,C]2 [CF]2) [CE]2 [CG]2 | [CF]8 | [Fc]4 [Fd]2 [Fc]2 | [Fc]3 [FA] [Fc]4 | %10
 [Fc]4 [Fd]2 [Fc]2 | [Gc]3 [CA] [CG]4 | [CA]4 [B,G]2 [A,F]2 | [DF]3 [B,D] [B,D]4 | %14
 ([A,C]2 [CF]2) [CE]2 [CG]2 | [CF]8 |] %16
V:2
 x8 | x8 | C4 x4 | x8 | x8 | x8 | x8 | x8 | x8 | x8 | x8 | x8 | x8 | x8 | x8 | x8 |] %16
V:3
 F,4 [C,E,]2 [D,F,]2 | [B,,B,]3 [B,,F,] [B,,F,]4 | [F,,A,]4 [A,,F,]2 [F,,F,]2 | [C,E,]8 | %4
 F,4 [C,E,]2 [D,F,]2 | [B,,B,]3 [B,,F,] [B,,F,]4 | (F,2 A,2) [C,G,]2 [C,B,]2 | [F,,A,]8 | %8
 [F,A,]4 [F,B,]2 [F,A,]2 | [F,A,]3 [F,C] [F,A,]4 | [F,A,]4 [B,,B,]2 [F,A,]2 | [E,G,]3 F, [C,E,]4 | %12
 F,4 [C,E,]2 [D,F,]2 | [B,,B,]3 [B,,F,] [B,,F,]4 | (F,2 A,2) [C,G,]2 [C,B,]2 | [F,,A,]8 |] %16
V:4
 F,4 x4 | x8 | x8 | x8 | F,4 x4 | x8 | C,4 x4 | x8 | x8 | x8 | x8 | x3 F, x4 | F,4 x4 | x8 | %14
 C,4 x4 | x8 |] %16

